src/assets/icons/parking_2.svg

<svg width="24" height="24" viewBox="0 0 24 24" fill="none" xmlns="http://www.w3.org/2000/svg">
<path fill-rule="evenodd" clip-rule="evenodd" d="M12.0556 20.0995C16.4959 20.0995 20.0956 16.4999 20.0956 12.0595C20.0956 7.61919 16.496 4.01953 12.0556 4.01953C7.61525 4.01953 4.01562 7.61919 4.01562 12.0595C4.01562 16.4999 7.61525 20.0995 12.0556 20.0995ZM13.1393 7.66547H9.485V13.6657L9.48522 16.2706H11.4952V13.6657H13.1393C14.7615 13.6657 16.0596 12.3136 16.0596 10.6656C16.0596 9.01763 14.7615 7.66547 13.1393 7.66547ZM11.4952 9.67544V11.6557H13.1394C13.6327 11.6557 14.0496 11.2214 14.0496 10.6656C14.0496 10.1098 13.6327 9.67544 13.1394 9.67544H11.4952Z" fill="black"/>
</svg>

<svg xmlns="http://www.w3.org/2000/svg" width="24" height="24" fill="none"><path fill="#000" fill-rule="evenodd" d="M12.056 20.1a8.04 8.04 0 1 0 0-16.08 8.04 8.04 0 0 0 0 16.08m1.083-12.435H9.485v8.606h2.01v-2.605h1.644c1.623 0 2.92-1.352 2.92-3s-1.298-3-2.92-3m-1.644 2.01v1.98h1.644c.494 0 .91-.434.91-.99 0-.555-.416-.99-.91-.99z" clip-rule="evenodd"/></svg>
